X: 21874
T: Kiss Me Kate
R: reel
M: 4/4
K: Gmajor
G2Bd gdBG|DEGB AE~E2|G2Bd gdBd|cABc AGED|
G2Bd gdBG|DEGB AE~E2|GA (3Bcd gdBd|cBAc BAGg||
faag fdef|~g2eg bgag|faag fede|fdef g2 (3agf|
gbaf g2bg|fgag fdde|fd~d2 fded|^cdef gedB||

